!!!SOCIAL_FUNCTION:	songs of war
!!!PDT:	1913
!!!OTL: No_15_Pledge_Song.krn
!!!REG: Great_Lakes
!!!LANG: Non-Tone
!!!LING_GROUP: Algonquin
**kern	**kern
*staff2	*staff1
=1-	=1-
*clefF4	*clefF4
*k[]	*k[]
*M2/4	*M2/4
4GG^/	4e\
4GG^/	4e\
=2||	=2||
*M3/4	*M3/4
4GG^/	8e\L
.	8e\J
4GG^/	8e\L
.	8e\J
4GG^/	4e\
=3||	=3||
*M2/4	*M2/4
2r	4d\
.	4c\
=4||	=4||
*M3/4	*M3/4
2.r	8d\L
.	8c\J
.	8A\L
.	8A\J
.	4A\
=5||	=5||
*M2/4	*M2/4
2r	4F\
.	4E\
=6||	=6||
*M3/4	*M3/4
2.r	8A\L
.	8A\J
.	8A\L
.	8A\J
.	4A\
=7||	=7||
*M2/4	*M2/4
2r	4F\
.	4E\
=8||	=8||
*M3/4	*M3/4
2.r	8E\L
.	8E\J
.	8E\L
.	8E\J
.	4E\
=9||	=9||
*M2/4	*M2/4
2r	8d^\L
.	8d\J
.	8d\L
.	8c\J
=10||	=10||
*M3/4	*M3/4
2.r	8d\L
.	8c\J
.	8A\L
.	8A\J
.	4A\
=11||	=11||
*M2/4	*M2/4
2r	4F\
.	4E\
=12||	=12||
*M3/4	*M3/4
2.r	8A\L
.	8A\J
.	8A\L
.	8A\J
.	4A\
=13||	=13||
*M2/4	*M2/4
2r	4F\
.	4E\
=14||	=14||
*M3/4	*M3/4
2.r	8E\L
.	8E\J
.	8E\L
.	8E\J
.	4E\
=15||	=15||
*M2/4	*M2/4
2r	4E\
.	4E\
==	==
*-	*-
